apps/scalable/2gis.svg

<svg xmlns="http://www.w3.org/2000/svg" style="isolation:isolate" width="256" height="256"><defs><filter id="a" width="270.648" height="254.338" x="-7.32" y="2.95" filterUnits="userSpaceOnUse"><feGaussianBlur xmlns="http://www.w3.org/2000/svg" in="SourceGraphic" stdDeviation="4.294"/><feOffset xmlns="http://www.w3.org/2000/svg" dy="4" result="pf_100_offsetBlur"/><feFlood xmlns="http://www.w3.org/2000/svg" flood-opacity=".4"/><feComposite xmlns="http://www.w3.org/2000/svg" in2="pf_100_offsetBlur" operator="in" result="pf_100_dropShadow"/><feBlend xmlns="http://www.w3.org/2000/svg" in="SourceGraphic" in2="pf_100_dropShadow"/></filter></defs><path fill="#FDC92B" d="M165.685 11.947c74.055 0 84.639 10.557 84.639 84.544v59.251c0 73.986-10.584 84.543-84.639 84.543h-75.37c-74.055 0-84.639-10.557-84.639-84.543V96.491c0-73.987 10.584-84.544 84.639-84.544h75.37z" filter="url(#a)"/><path fill="#F9F9F9" d="M133.25 52c60 10 59.5 10.25 116.499 20.029.416 7.264.575 15.386.575 24.462v59.251c0 73.986-10.584 84.543-84.639 84.543h-75.37c-74.055 0-84.639-10.557-84.639-84.543V96.491c0-31.437 1.911-51.423 9.79-64.013C65.25 40.75 77.5 43 133.25 52z"/><path fill="#2F8925" d="M39.75 42.75c98 17.042 168 28 210.278 35.258.21 5.673.296 11.821.296 18.483v59.251c0 73.986-10.584 84.543-84.639 84.543h-75.37c-74.055 0-84.639-10.557-84.639-84.543V96.491c0-27.057 1.415-45.631 6.833-58.308C19.25 39.75 26.75 41 39.75 42.75z"/><path fill="#F9F9F9" d="M218 174.25c13.358-1.582 31.5-1.874 32.119-2.754-1.764 59.772-15.992 68.789-84.434 68.789h-75.37c-57.816 0-76.945-6.434-82.555-44.463-4.237-.737 149.394-14.365 210.24-21.572z"/><path fill="#83C643" d="M211.5 182c21.499-2.218 38.726-3.411 38.379-4.268-2.614 54.171-18.206 62.553-84.194 62.553h-75.37c-54.572 0-74.676-5.733-81.478-38.355-1.02-1.153 135.494-12.999 202.663-19.93z"/><path fill="#F9F9F9" d="M128.668 42.333c-27.862 0-51.001 23.139-51.001 51.001 0 17.708 4.466 31.095 4.466 31.095l.963 2.905h11.571c6.729 0 12.592 3.867 17.448 13.58 4.856 9.713 8.052 25.095 8.052 45.92h17c0-20.825 3.196-36.207 8.052-45.92 4.856-9.713 10.719-13.58 17.448-13.58h11.571l.963-2.905s4.466-13.387 4.466-31.095c0-27.862-23.139-51.001-51.001-51.001h.002z"/><path fill="#37A6E6" d="M128.668 50.833c-23.139 0-42.501 19.362-42.501 42.501 0 14.625 2.955 23.349 3.619 25.5h4.881c10.271 0 19.283 6.757 25.052 18.294 5.769 11.538 8.949 28.031 8.949 49.706 0-21.675 3.179-38.167 8.948-49.706 5.768-11.537 14.78-18.294 25.052-18.294h4.881c.664-2.151 3.619-10.875 3.619-25.5 0-23.139-19.362-42.501-42.5-42.501z"/><g opacity=".4"><linearGradient id="b" x1=".517" x2=".517" y2="1"><stop offset="0%" stop-color="#fff"/><stop offset="12.5%" stop-opacity=".098" stop-color="#fff"/><stop offset="92.5%" stop-opacity=".098"/><stop offset="100%" stop-opacity=".498"/></linearGradient><path fill="none" stroke="url(#b)" stroke-linecap="round" stroke-linejoin="round" stroke-width="4.077" d="M165.685 11.947c74.055 0 84.639 10.557 84.639 84.544v59.251c0 73.986-10.584 84.543-84.639 84.543h-75.37c-74.055 0-84.639-10.557-84.639-84.543V96.491c0-73.987 10.584-84.544 84.639-84.544h75.37z" vector-effect="non-scaling-stroke"/></g></svg>

<svg xmlns="http://www.w3.org/2000/svg" style="isolation:isolate" width="256" height="256" viewBox="0 0 256 256">
 <defs>
  <filter id="h6cQKPI1cuiP0Kzq1RsN1MrtGoQJVXFN" width="270.648" height="254.338" x="-7.32" y="2.95" filterUnits="userSpaceOnUse">
   <feGaussianBlur xmlns="http://www.w3.org/2000/svg" in="SourceGraphic" stdDeviation="4.294"/>
   <feOffset xmlns="http://www.w3.org/2000/svg" dx="0" dy="4" result="pf_100_offsetBlur"/>
   <feFlood xmlns="http://www.w3.org/2000/svg" flood-opacity=".4"/>
   <feComposite xmlns="http://www.w3.org/2000/svg" in2="pf_100_offsetBlur" operator="in" result="pf_100_dropShadow"/>
   <feBlend xmlns="http://www.w3.org/2000/svg" in="SourceGraphic" in2="pf_100_dropShadow" mode="normal"/>
  </filter>
 </defs>
 <g filter="url(#h6cQKPI1cuiP0Kzq1RsN1MrtGoQJVXFN)">
  <path fill="#FDC92B" d="M 165.685 11.947 C 239.74 11.947 250.324 22.504 250.324 96.491 L 250.324 155.742 C 250.324 229.728 239.74 240.285 165.685 240.285 L 90.315 240.285 C 16.26 240.285 5.676 229.728 5.676 155.742 L 5.676 96.491 C 5.676 22.504 16.26 11.947 90.315 11.947 L 165.685 11.947 Z"/>
 </g>
 <path fill="#F9F9F9" d="M 133.25 52 C 193.25 62 192.75 62.25 249.749 72.029 C 250.165 79.293 250.324 87.415 250.324 96.491 L 250.324 155.742 C 250.324 229.728 239.74 240.285 165.685 240.285 L 90.315 240.285 C 16.26 240.285 5.676 229.728 5.676 155.742 L 5.676 96.491 C 5.676 65.054 7.587 45.068 15.466 32.478 C 65.25 40.75 77.5 43 133.25 52 Z"/>
 <path fill="#2F8925" d="M 39.75 42.75 C 137.75 59.792 207.75 70.75 250.028 78.008 C 250.238 83.681 250.324 89.829 250.324 96.491 L 250.324 155.742 C 250.324 229.728 239.74 240.285 165.685 240.285 L 90.315 240.285 C 16.26 240.285 5.676 229.728 5.676 155.742 L 5.676 96.491 C 5.676 69.434 7.091 50.86 12.509 38.183 C 19.25 39.75 26.75 41 39.75 42.75 Z"/>
 <path fill="#F9F9F9" d="M 218 174.25 C 231.358 172.668 249.5 172.376 250.119 171.496 C 248.355 231.268 234.127 240.285 165.685 240.285 L 90.315 240.285 C 32.499 240.285 13.37 233.851 7.76 195.822 C 3.523 195.085 157.154 181.457 218 174.25 Z"/>
 <path fill="#83C643" d="M 211.5 182 C 232.999 179.782 250.226 178.589 249.879 177.732 C 247.265 231.903 231.673 240.285 165.685 240.285 L 90.315 240.285 C 35.743 240.285 15.639 234.552 8.837 201.93 C 7.817 200.777 144.331 188.931 211.5 182 Z"/>
 <g>
  <path fill="#F9F9F9" d="M 128.668 42.333 C 100.806 42.333 77.667 65.472 77.667 93.334 C 77.667 111.042 82.133 124.429 82.133 124.429 L 83.096 127.334 L 94.667 127.334 C 101.396 127.334 107.259 131.201 112.115 140.914 C 116.971 150.627 120.167 166.009 120.167 186.834 L 137.167 186.834 C 137.167 166.009 140.363 150.627 145.219 140.914 C 150.075 131.201 155.938 127.334 162.667 127.334 L 174.238 127.334 L 175.201 124.429 C 175.201 124.429 179.667 111.042 179.667 93.334 C 179.667 65.472 156.528 42.333 128.666 42.333 L 128.668 42.333 Z"/>
  <path fill="#37A6E6" d="M 128.668 50.833 C 105.529 50.833 86.167 70.195 86.167 93.334 C 86.167 107.959 89.122 116.683 89.786 118.834 L 94.667 118.834 C 104.938 118.834 113.95 125.591 119.719 137.128 C 125.488 148.666 128.668 165.159 128.668 186.834 C 128.668 165.159 131.847 148.667 137.616 137.128 C 143.384 125.591 152.396 118.834 162.668 118.834 L 167.549 118.834 C 168.213 116.683 171.168 107.959 171.168 93.334 C 171.168 70.195 151.806 50.833 128.668 50.833 Z"/>
 </g>
 <g opacity=".4">
  <linearGradient id="_lgradient_1" x1=".517" x2=".517" y1="0" y2="1">
   <stop offset="0%" style="stop-color:rgb(255,255,255)"/>
   <stop offset="12.5%" stop-opacity=".098" style="stop-color:rgb(255,255,255)"/>
   <stop offset="92.5%" stop-opacity=".098" style="stop-color:rgb(0,0,0)"/>
   <stop offset="100%" stop-opacity=".498" style="stop-color:rgb(0,0,0)"/>
  </linearGradient>
  <path fill="none" stroke="url(#_lgradient_1)" stroke-linecap="round" stroke-linejoin="round" stroke-width="4.077" d="M 165.685 11.947 C 239.74 11.947 250.324 22.504 250.324 96.491 L 250.324 155.742 C 250.324 229.728 239.74 240.285 165.685 240.285 L 90.315 240.285 C 16.26 240.285 5.676 229.728 5.676 155.742 L 5.676 96.491 C 5.676 22.504 16.26 11.947 90.315 11.947 L 165.685 11.947 Z" vector-effect="non-scaling-stroke"/>
 </g>
</svg>
